symbols/web/19mp/materialsymbolsoutlined/19mp_wght600_24px.svg

<svg xmlns="http://www.w3.org/2000/svg" height="24" width="24"><path d="M8.5 11.675H10v-6H7v1.5h1.5Zm3.5 0h3.5q.425 0 .712-.288.288-.287.288-.712v-4q0-.425-.288-.712-.287-.288-.712-.288H13q-.425 0-.712.288Q12 6.25 12 6.675v1.5q0 .425.288.712.287.288.712.288h2v1h-3Zm1.5-3.5v-1.5H15v1.5ZM6 18.325h1.5V14h1v2.925H10V14h1v4.325h1.5V13.5q0-.425-.287-.713-.288-.287-.713-.287H7q-.425 0-.713.287Q6 13.075 6 13.5Zm7.5 0H15v-1.4h2q.425 0 .712-.287.288-.288.288-.713V13.5q0-.425-.288-.713-.287-.287-.712-.287h-3.5Zm1.5-2.9V14h1.5v1.425Zm-9.825 6.05q-1.125 0-1.887-.763-.763-.762-.763-1.887V5.175q0-1.125.763-1.888.762-.762 1.887-.762h13.65q1.125 0 1.888.762.762.763.762 1.888v13.65q0 1.125-.762 1.887-.763.763-1.888.763Zm0-2.65h13.65V5.175H5.175v13.65Zm0-13.65v13.65-13.65Z"/></svg>

<svg xmlns="http://www.w3.org/2000/svg" height="24" width="24"><path d="M8.5 11.675H10V5.675H7V7.175H8.5ZM12 11.675H15.5Q15.925 11.675 16.212 11.387Q16.5 11.1 16.5 10.675V6.675Q16.5 6.25 16.212 5.963Q15.925 5.675 15.5 5.675H13Q12.575 5.675 12.288 5.963Q12 6.25 12 6.675V8.175Q12 8.6 12.288 8.887Q12.575 9.175 13 9.175H15V10.175H12ZM13.5 8.175V6.675H15V8.175ZM5.175 21.475Q4.05 21.475 3.288 20.712Q2.525 19.95 2.525 18.825V5.175Q2.525 4.05 3.288 3.287Q4.05 2.525 5.175 2.525H18.825Q19.95 2.525 20.713 3.287Q21.475 4.05 21.475 5.175V18.825Q21.475 19.95 20.713 20.712Q19.95 21.475 18.825 21.475ZM5.175 18.825H18.825Q18.825 18.825 18.825 18.825Q18.825 18.825 18.825 18.825V5.175Q18.825 5.175 18.825 5.175Q18.825 5.175 18.825 5.175H5.175Q5.175 5.175 5.175 5.175Q5.175 5.175 5.175 5.175V18.825Q5.175 18.825 5.175 18.825Q5.175 18.825 5.175 18.825ZM5.175 5.175Q5.175 5.175 5.175 5.175Q5.175 5.175 5.175 5.175V18.825Q5.175 18.825 5.175 18.825Q5.175 18.825 5.175 18.825Q5.175 18.825 5.175 18.825Q5.175 18.825 5.175 18.825V5.175Q5.175 5.175 5.175 5.175Q5.175 5.175 5.175 5.175ZM7 12.5Q6.575 12.5 6.287 12.787Q6 13.075 6 13.5V18.325H7.5V14H8.5V16.925H10V14H11V18.325H12.5V13.5Q12.5 13.075 12.213 12.787Q11.925 12.5 11.5 12.5ZM13.5 12.5V18.325H15V16.925H17Q17.425 16.925 17.712 16.638Q18 16.35 18 15.925V13.5Q18 13.075 17.712 12.787Q17.425 12.5 17 12.5ZM15 14H16.5V15.425H15Z"/></svg>
